Adwaita++/actions/22/im-google-talk.svg

<svg height="22" viewBox="0 0 22 22" width="22" xmlns="http://www.w3.org/2000/svg">
  <path d="m8 1c-3.8659 0-7 2.3506-7 5.25 0 2.855 3.2159 5.68 7 5.75v3c7-4 7-6.768 7-8.75 0-2.8994-3.134-5.25-7-5.25zm-4 3h3v3c0 1-1 2-2 2v-1s1 0 1-1h-2zm5 0h3v3c0 1-1 2-2 2v-1s1 0 1-1h-2z" fill="#444" transform="translate(3 3)"/>
</svg>

<svg xmlns="http://www.w3.org/2000/svg" width="22" height="22" viewBox="0 0 22 22">
 <defs>
  <style id="current-color-scheme" type="text/css">
   .ColorScheme-Text { color:#444444; } .ColorScheme-Highlight { color:#4285f4; }
  </style>
 </defs>
 <path style="fill:currentColor" class="ColorScheme-Text" d="M 8 1 C 4.1341 1 1 3.3506 1 6.25 C 1 9.105 4.2159 11.93 8 12 L 8 15 C 15 11 15 8.232 15 6.25 C 15 3.3506 11.866 1 8 1 z M 4 4 L 7 4 L 7 7 C 7 8 6 9 5 9 L 5 8 C 5 8 6 8 6 7 L 4 7 L 4 4 z M 9 4 L 12 4 L 12 7 C 12 8 11 9 10 9 L 10 8 C 10 8 11 8 11 7 L 9 7 L 9 4 z" transform="translate(3 3)"/>
</svg>
